static/scenes/buildandbolt/img/platform/platform_whole.svg

<svg width="150" height="150" viewBox="0 0 150 150" fill="none" xmlns="http://www.w3.org/2000/svg"><path fill="#30A658" d="M50 100h50v50H50z"/><path d="M100 137H50v13h50v-13z" fill="#1A844B"/><path d="M50 112.5h50" stroke="#226D45" stroke-width="5"/><path d="M100 50V0h42l8 8v42h-50z" fill="#30A658"/><path d="M146 4l4 4v42h-4V4z" fill="#1C6F3A"/><path d="M126 50V13h-26" stroke="#226D45" stroke-width="5"/><path d="M50 50V0H8L0 8v42h50z" fill="#30A658"/><path d="M4 4L0 8v42h4V4z" fill="#1C6F3A"/><path d="M24 50V13h26" stroke="#226D45" stroke-width="5"/><path fill="#30A658" d="M50 0h50v50H50z"/><path d="M50 13h50" stroke="#226D45" stroke-width="5"/><path fill="#30A658" d="M50 50h50v50H50z"/><path d="M50 63h50" stroke="#226D45" stroke-width="5"/><path fill="#30A658" d="M100 50h50v50h-50z"/><path d="M126 100V50" stroke="#226D45" stroke-width="5"/><path d="M146 50h4v50h-4V50z" fill="#1C6F3A"/><path fill="#30A658" d="M50 50H0v50h50z"/><path d="M24 100V50" stroke="#226D45" stroke-width="5"/><path d="M4 50H0v50h4V50z" fill="#1C6F3A"/><path d="M100 100h50v42l-8 8h-42v-50z" fill="#30A658"/><path d="M100 137h50v5l-8 8h-42v-13z" fill="#1A844B"/><path d="M126 100v12.5h-26" stroke="#226D45" stroke-width="5"/><path d="M142 137l8-8v13l-8 8v-13z" fill="#1C6F3A"/><path d="M146 100h4v29l-4 4v-33z" fill="#1C6F3A"/><path d="M50 100H0v42l8 8h42v-50z" fill="#30A658"/><path d="M50 137H0v5l8 8h42v-13z" fill="#1A844B"/><path d="M24 100v12.5h26" stroke="#226D45" stroke-width="5"/><path d="M8 137l-8-8v13l8 8v-13z" fill="#1C6F3A"/><path d="M4 100H0v29l4 4v-33z" fill="#1C6F3A"/></svg>

<svg width="150" height="150" viewBox="0 0 150 150" fill="none" xmlns="http://www.w3.org/2000/svg">
<rect x="50" y="100" width="50" height="50" fill="#30A658"/>
<path d="M100 137H50V145.84V150H100V137Z" fill="#1A844B"/>
<path d="M50 112.5H100" stroke="#226D45" stroke-width="5"/>
<path d="M100 50L100 0L142 -1.83588e-06L150 8L150 50L100 50Z" fill="#30A658"/>
<path d="M146 4L150 8V50H146V4Z" fill="#1C6F3A"/>
<path d="M126 50V13H100" stroke="#226D45" stroke-width="5"/>
<path d="M50 50L50 0L8 -1.83588e-06L-3.49691e-07 8L-2.18557e-06 50L50 50Z" fill="#30A658"/>
<path d="M4 4L0 8V50H4V4Z" fill="#1C6F3A"/>
<path d="M24 50V13H50" stroke="#226D45" stroke-width="5"/>
<rect x="50" width="50" height="50" fill="#30A658"/>
<path d="M50 13H100" stroke="#226D45" stroke-width="5"/>
<rect x="50" y="50" width="50" height="50" fill="#30A658"/>
<path d="M50 63H100" stroke="#226D45" stroke-width="5"/>
<rect x="100" y="50" width="50" height="50" fill="#30A658"/>
<path d="M126 100V50" stroke="#226D45" stroke-width="5"/>
<path d="M146 50H150V100H146V50Z" fill="#1C6F3A"/>
<rect width="50" height="50" transform="matrix(-1 0 0 1 50 50)" fill="#30A658"/>
<path d="M24 100V50" stroke="#226D45" stroke-width="5"/>
<path d="M4 50H0V100H4V50Z" fill="#1C6F3A"/>
<path d="M100 100H150V142L142 150H100V100Z" fill="#30A658"/>
<path d="M100 137H150V142L142 150H100V137Z" fill="#1A844B"/>
<path d="M126 100V112.5H100" stroke="#226D45" stroke-width="5"/>
<path d="M142 137L150 129V142L142 150V137Z" fill="#1C6F3A"/>
<path d="M146 100H150V129L146 133V100Z" fill="#1C6F3A"/>
<path d="M50 100H0V142L8 150H50V100Z" fill="#30A658"/>
<path d="M50 137H0V142L8 150H50V137Z" fill="#1A844B"/>
<path d="M24.0002 100V112.5H50" stroke="#226D45" stroke-width="5"/>
<path d="M8 137L0 129V142L8 150V137Z" fill="#1C6F3A"/>
<path d="M4 100H0V129L4 133V100Z" fill="#1C6F3A"/>
</svg>
